src/static/logos/aws-mobilehub.svg

<?xml version="1.0" encoding="UTF-8" standalone="no"?>
<svg width="256px" height="280px" viewBox="0 0 256 280" version="1.1" xmlns="http://www.w3.org/2000/svg" xmlns:xlink="http://www.w3.org/1999/xlink" preserveAspectRatio="xMidYMid">
    <defs>
        <linearGradient x1="-2.58735955%" y1="59.8316302%" x2="97.6946629%" y2="41.1810219%" id="linearGradient-1">
            <stop stop-color="#F7962F" stop-opacity="0.96" offset="0%"></stop>
            <stop stop-color="#D64626" stop-opacity="0.96" offset="35.63%"></stop>
            <stop stop-color="#D04730" stop-opacity="0.9659" offset="45.19%"></stop>
            <stop stop-color="#BF4949" stop-opacity="0.9759" offset="61.16%"></stop>
            <stop stop-color="#A44C73" stop-opacity="0.9885" offset="81.44%"></stop>
            <stop stop-color="#87509F" offset="100%"></stop>
        </linearGradient>
    </defs>
	<g>
		<path d="M170.422148,31.5703265 L217.212121,58.3482727 L217.212121,78.3515152 L228.848485,84.6351515 L228.848485,143.825455 L217.212121,150.109091 L217.212121,171.442424 L236.606061,181.915152 L256,171.054545 L256,150.109091 L236.606061,139.636364 L236.606061,88.8242424 L256,77.9636364 L256,57.4060606 L236.606061,46.5454545 L224.0519,53.3247014 L170.666667,22.7722814 L170.666667,10.8606061 L153.212121,0 L135.757576,10.4727273 L135.757576,31.8060606 L153.212121,42.2787879 L170.422148,31.5703265 Z" fill="#AD688A"></path>
		<path d="M23.2727273,86.729697 L23.2727273,141.730909 L38.7878788,150.109091 L38.7878788,171.442424 L19.3939394,181.915152 L0,171.054545 L0,150.109091 L11.6363636,143.825455 L11.6363636,84.48 L0,77.9636364 L0,57.4060606 L19.3939394,46.5454545 L32.4958515,53.6204871 L77.5757576,27.8212137 L77.5757576,10.8606061 L96.969697,0 L116.363636,10.4727273 L116.363636,31.8060606 L96.969697,42.2787879 L82.2927146,34.0596778 L38.7878788,58.9575369 L38.7878788,78.3515152 L23.2727273,86.729697 Z" fill="#F58435"></path>
		<path d="M145.842424,250.264535 L192.644676,224.12689 L208.290909,233.115152 L226.521212,223.030303 L226.909091,201.69697 L208.678788,190.836364 L190.060606,201.309091 L190.060606,216.684411 L140.469018,244.379816 L127.612121,236.993939 L110.926015,246.579575 L65.9930817,220.023788 L66.3272727,201.309091 L48.0969697,190.836364 L29.4787879,201.309091 L29.4787879,222.642424 L47.7090909,233.115152 L60.7191582,225.918093 L109.381818,254.678183 L109.381818,268.8 L127.612121,279.272727 L145.842424,268.8 L145.842424,250.264535 Z" fill="#DF5343"></path>
		<path d="M58.569697,91.1515152 L58.569697,171.830303 L127.612121,211.393939 L195.490909,172.993939 L196.654545,92.3151515 L128,51.9757576 L58.569697,91.1515152 Z" fill="url(#linearGradient-1)"></path>
		<path d="M127.224242,185.793939 L80.2909091,158.642424 L80.6787879,103.951515 L128,77.1878788 L174.545455,104.727273 L173.769697,159.418182 L127.224242,185.793939 L127.224242,185.793939 Z M84.9454545,155.927273 L127.224242,180.363636 L168.727273,156.70303 L169.50303,107.442424 L127.612121,83.0060606 L85.3333333,106.666667 L84.9454545,155.927273 L84.9454545,155.927273 Z" fill="#FFFFFF"></path>
	</g>
</svg>

<svg width="256" height="280" xmlns="http://www.w3.org/2000/svg" preserveAspectRatio="xMidYMid"><defs><linearGradient x1="-2.587%" y1="59.832%" x2="97.695%" y2="41.181%" id="a"><stop stop-color="#F7962F" stop-opacity=".96" offset="0%"/><stop stop-color="#D64626" stop-opacity=".96" offset="35.63%"/><stop stop-color="#D04730" stop-opacity=".966" offset="45.19%"/><stop stop-color="#BF4949" stop-opacity=".976" offset="61.16%"/><stop stop-color="#A44C73" stop-opacity=".989" offset="81.44%"/><stop stop-color="#87509F" offset="100%"/></linearGradient></defs><path d="M170.422 31.57l46.79 26.778v20.004l11.636 6.283v59.19l-11.636 6.284v21.333l19.394 10.473L256 171.055v-20.946l-19.394-10.473V88.824L256 77.964V57.406l-19.394-10.86-12.554 6.779-53.385-30.553V10.861L153.212 0l-17.454 10.473v21.333l17.454 10.473 17.21-10.709z" fill="#AD688A"/><path d="M23.273 86.73v55l15.515 8.38v21.332l-19.394 10.473L0 171.055v-20.946l11.636-6.284V84.48L0 77.964V57.406l19.394-10.86 13.102 7.074 45.08-25.799v-16.96L96.97 0l19.394 10.473v21.333L96.97 42.28l-14.677-8.22-43.505 24.899v19.394L23.273 86.73z" fill="#F58435"/><path d="M145.842 250.265l46.803-26.138 15.646 8.988 18.23-10.085.388-21.333-18.23-10.86-18.618 10.472v15.375l-49.592 27.696-12.857-7.386-16.686 9.586-44.933-26.556.334-18.715-18.23-10.473-18.618 10.473v21.333l18.23 10.473 13.01-7.197 48.663 28.76V268.8l18.23 10.473 18.23-10.473v-18.535z" fill="#DF5343"/><path d="M58.57 91.152v80.678l69.042 39.564 67.879-38.4 1.164-80.679L128 51.975 58.57 91.153z" fill="url(#a)"/><path d="M127.224 185.794l-46.933-27.152.388-54.69L128 77.188l46.545 27.54-.775 54.69-46.546 26.376zm-42.279-29.867l42.28 24.437 41.502-23.661.776-49.26-41.89-24.437-42.28 23.66-.388 49.261z" fill="#FFF"/></svg>
